X:1
T:Spring
T:G Major            Jacob French, 1789
T:Transcribed from The New American Melody, 1789.
T:Isaac Watts, 1706 To William Blackbourn, Alt.              10 10. 10 12.
%%score [ 1 2 3 4 ]
L:1/8
Q:1/4=80
M:2/4
K:G
V:1 treble nm="Tr." snm="Tr."
V:2 treble nm="C." snm="C."
V:3 treble-8 nm="T." snm="T."
V:4 bass nm="B." snm="B."
V:1
"_1. Mark how it     snows!      how   fast  the  val  – ley    fills;    And   the  sweet  rose   the    hoa – ry  garment wears;  Yet  the  warm sunbeams,  boun – ding   from   the\n2.  But  when  old  age          has     on  your tem –ples   shed    Her   sil  – ver    frost,  there's  no  re – tur – ning sun;  Swift  flies  our  au–tumn,  swift    our     sum – mer's" B2 A A | %1
 Bdd B | c d e d | d4 | BA G G | A3 G | c A B3/2 c/ | B2 B3/2 c/ | !wedge!d2 !wedge!d2 | %9
 !wedge!d4 | cd ec | d2 e2 | %12
"_1. hills,  Shall  melt  the  veil    a   –  way,   and   the    young       green  ap  –  pear.\n2. fled,  When youth and love and spring, and  gol  –    den         joys    are     gone." A3 B | %13
 c d e d | d2 c d | ec/>e/ d2 | d4 | [Bd]4 |] %18
V:2
"_3. Then cold and   win     –    ter    and   your  a – ged  snow,   Stick    fast   up  –  on   you;  not  the   rich   ar   –  ray,   Not   the  green  garland,  nor     the         ro   –   sy\n4. The  chase  of    plea   –    sures  is  not  worth  the  pains,  While  the bright sands of health  run  was–ting  down; And   ho – nor  calls  you  from   the         sof  –  ter" D2 E F | %1
 G3 G | G G A G | F4 | D2 E G | F3 G | F E F F | G2 D3/2 D/ | !wedge!G2 !wedge!G2 | !wedge!G4 | %10
 G2 A2 | D2 G2 | %12
"_3. bough,  Shall  can–cel   or   con  – ceal    the   me  –  lan     –     cho  – ly      gray.\n4. scenes,  To     sell   the  gau – dy    hour    for   a    –   ges             of      re  – nown." F3 G | %13
 G G A G | F2 G G | AD/G/ G2 | F4 | G4 |] %18
V:3
"_5. Tis   but  one    youth,      and  short, that  mor –tals  have;  And    one  old    age   dissolves  our  fee – ble   frame: But  there's  a  hea–venly   art       t'e    –    lude    the\n6. The man that    has           his   coun –try's  sac – red  tears   Be  –  de –wing  his cold hearse, has  lived  his   day:  Thus, old friend, we should leave   our      names  our" G2 B d | %1
 G3 d | e d c B | A4 | GA B c | d3 B | c e d ^c | d2 G3/2 A/ | !wedge!B2 !wedge!B2 | !wedge!B4 | %10
 ed c2 | BA G2 | %12
"_5. grave;  And  with  the  he – ro       race  im – mor – tal             kin  – dred   claim.\n6. heirs;   Old   time  and waning  moons sweep  all    the            rest     a    –   way." d3 d | %13
 e d c B | A2 e d | c2 B2 | A4 | G4 |] %18
V:4
 G,2 E, D, | [G,,G,][B,,B,][B,,B,] [G,,G,] | [C,C] [B,,B,] [A,,A,] [G,,G,] | D,4 | G,F, E, E, | %5
 D,3 [G,,G,] | [A,,A,] [C,C] [B,,B,] [A,,A,] | [G,,G,]3 [G,,G,]/ [G,,G,]/ | %8
 !wedge![G,,G,]2 !wedge![G,,G,]2 | !wedge![G,,G,]4 | [C,C][B,,B,] [A,,A,]2 | G,F, E,2 | %12
"_____________________________________________________\nEdited by B. C. Johnston, 2018\n   1. Measure 8, Bass: written as                 changed to               .    2. Measure 16, Counter: last note changed from F# to G." D,3 [G,,G,] | %13
 [C,C] [B,,B,] [A,,A,] [G,,G,] | D,2 [C,C] [D,B,] | [A,,A,]2 [G,,G,]2 | D,4 | G,,4 |] %18

